X: 1
T: Happy, The
M: 4/4
L: 1/8
R: hornpipe
K: Gmaj
dc|BGGG DGBG|EGcd e2ge|d2ge dged|BAAB A2dc|
BGGG DGBG|EGcd efga|bgdg ecDF|AGGF G2:|
FE|D3F ADEF|GFGB dBGg|ecGe dBGB|AGEG A2DE|
F3G ADEF|G3B dBgd|ecge dBgB|cAFA G2:|
